X: 20312
T: John Brennan's
R: reel
M: 4/4
K: Dmajor
D2FA d2ed|cdBc ABGA|FGEF DEFA|BAGF EGFE|
D2FA d2ed|cdBA ~A2 FG|BAGB ABde|1 faef dBAG:|2 faed d2 de||
f2df efde|fedB AF~F2|BAGB ADFA|BAGF EAde|
f2df e2de|fedB AF~F2|BAGB ABde|faed d2 de|
f2df efde|fedB AF~F2|BAGB ADFA|BAGF EGFE|
D2FA d2ed|cdBc ABGA|FGEF DFAd|faed d4||

